svgs/solid/kaaba.svg

<svg xmlns="http://www.w3.org/2000/svg" viewBox="0 0 576 512"><!-- Font Awesome Pro 5.15.3 by @fontawesome - https://fontawesome.com License - https://fontawesome.com/license (Commercial License) --><path d="M554.12 83.51L318.36 4.93a95.962 95.962 0 0 0-60.71 0L21.88 83.51A32.006 32.006 0 0 0 0 113.87v49.01l265.02-79.51c15.03-4.5 30.92-4.5 45.98 0l265 79.51v-49.01c0-13.77-8.81-26-21.88-30.36zm-279.9 30.52L0 196.3v228.38c0 15 10.42 27.98 25.06 31.24l242.12 53.8a95.937 95.937 0 0 0 41.65 0l242.12-53.8c14.64-3.25 25.06-16.24 25.06-31.24V196.29l-274.2-82.26c-9.04-2.72-18.59-2.72-27.59 0zM128 230.11c0 3.61-2.41 6.77-5.89 7.72l-80 21.82C37.02 261.03 32 257.2 32 251.93v-16.58c0-3.61 2.41-6.77 5.89-7.72l80-21.82c5.09-1.39 10.11 2.44 10.11 7.72v16.58zm144-39.28c0 3.61-2.41 6.77-5.89 7.72l-96 26.18c-5.09 1.39-10.11-2.44-10.11-7.72v-16.58c0-3.61 2.41-6.77 5.89-7.72l96-26.18c5.09-1.39 10.11 2.44 10.11 7.72v16.58zm176 22.7c0-5.28 5.02-9.11 10.11-7.72l80 21.82c3.48.95 5.89 4.11 5.89 7.72v16.58c0 5.28-5.02 9.11-10.11 7.72l-80-21.82a7.997 7.997 0 0 1-5.89-7.72v-16.58zm-144-39.27c0-5.28 5.02-9.11 10.11-7.72l96 26.18c3.48.95 5.89 4.11 5.89 7.72v16.58c0 5.28-5.02 9.11-10.11 7.72l-96-26.18a7.997 7.997 0 0 1-5.89-7.72v-16.58z"/></svg>

<svg xmlns="http://www.w3.org/2000/svg" viewBox="0 0 576 512"><!--! Font Awesome Pro 6.0.0-alpha3 by @fontawesome - https://fontawesome.com License - https://fontawesome.com/license (Commercial License) --><path d="M554.1 83.5L318.4 4.875c-19.75-6.5-41-6.5-60.75 0L21.88 83.5C8.875 87.87 0 100.1 0 113.9v49l265-79.5c15-4.5 31-4.5 46 0L576 162.9V113.9C576 100.1 567.3 87.87 554.1 83.5zM274.3 114L0 196.3v228.4c0 15 10.38 28 25 31.25l242.1 53.88c13.75 3 28 3 41.75 0l242.1-53.88C565.6 452.6 576 439.6 576 424.6V196.3l-274.3-82.25C292.8 111.2 283.3 111.2 274.3 114zM128 230.1c0 3.625-2.375 6.75-5.875 7.75l-80 21.75C37 261 32 257.3 32 251.9v-16.5c0-3.625 2.375-6.75 5.875-7.75l80-21.88C123 204.4 128 208.3 128 213.5V230.1zM272 190.9c0 3.625-2.375 6.75-5.875 7.625l-96 26.25C165 226.1 160 222.3 160 217V200.4c0-3.5 2.375-6.75 5.875-7.625l96-26.25C267 165.1 272 169 272 174.3V190.9zM448 213.5c0-5.25 5-9.125 10.12-7.75l80 21.88C541.6 228.6 544 231.8 544 235.4v16.5c0 5.375-5 9.125-10.12 7.75l-80-21.75C450.4 236.9 448 233.8 448 230.1V213.5zM304 174.3c0-5.25 5-9.125 10.12-7.75l96 26.25C413.6 193.6 416 196.9 416 200.5V217c0 5.25-5 9.125-10.12 7.75l-96-26.25C306.4 197.6 304 194.5 304 190.9V174.3z"/></svg>
